tenants/businesswise/icons/error_fill.svg

<svg fill="none" height="24" viewBox="0 0 24 24" width="24" xmlns="http://www.w3.org/2000/svg"><path d="m21.7155 18.2975-7.6386-14.06948c-.2022-.37157-.5009-.68173-.8646-.89785-.3636-.21611-.7789-.33017-1.2019-.33017s-.8383.11406-1.2019.33017c-.3637.21612-.6624.52628-.8646.89785l-7.64646 14.06948c-.20013.3592-.30262.7646-.29724 1.1758s.11844.8138.32791 1.1677.50803.6467.86592.8492c.3579.2025.76262.3077 1.17384.3051h15.27723c.4078.0003.8088-.1053 1.1635-.3066s.6509-.4914.8597-.8418c.2088-.3503.3229-.7489.3312-1.1567.0083-.4077-.0896-.8106-.284-1.1692zm-10.8776-10.03842c0-.312.124-.61121.3446-.83183.2206-.22061.5198-.34455.8318-.34455s.6112.12394.8318.34455c.2207.22062.3446.51983.3446.83183v5.40352c0 .312-.1239.6112-.3446.8318-.2206.2206-.5198.3445-.8318.3445s-.6112-.1239-.8318-.3445-.3446-.5198-.3446-.8318zm1.2078 10.59522c-.2668 0-.5276-.0791-.7494-.2273-.2219-.1482-.3947-.3589-.4968-.6054s-.1289-.5177-.0768-.7794c.052-.2616.1805-.502.3692-.6906.1886-.1887.429-.3171.6906-.3692.2617-.052.5329-.0253.7794.0768s.4572.275.6054.4968.2273.4826.2273.7494c0 .3578-.1421.7009-.3951.9538-.253.253-.5961.3951-.9538.3951z" fill="#000"/></svg>

<svg width="24" height="24" viewBox="0 0 24 24" fill="none" xmlns="http://www.w3.org/2000/svg">
<path d="M21.7155 18.2975L14.0769 4.22802C13.8747 3.85645 13.576 3.54629 13.2123 3.33017C12.8487 3.11406 12.4334 3 12.0104 3C11.5874 3 11.1721 3.11406 10.8085 3.33017C10.4448 3.54629 10.1461 3.85645 9.9439 4.22802L2.29744 18.2975C2.09731 18.6567 1.99482 19.0621 2.0002 19.4733C2.00558 19.8845 2.11864 20.2871 2.32811 20.641C2.53758 20.9949 2.83614 21.2877 3.19403 21.4902C3.55193 21.6927 3.95665 21.7979 4.36787 21.7953H19.6451C20.0529 21.7956 20.4539 21.69 20.8086 21.4887C21.1633 21.2874 21.4595 20.9973 21.6683 20.6469C21.8771 20.2966 21.9912 19.898 21.9995 19.4902C22.0078 19.0825 21.9099 18.6796 21.7155 18.321V18.2975ZM10.8379 8.25908C10.8379 7.94708 10.9619 7.64787 11.1825 7.42725C11.4031 7.20664 11.7023 7.0827 12.0143 7.0827C12.3263 7.0827 12.6255 7.20664 12.8461 7.42725C13.0668 7.64787 13.1907 7.94708 13.1907 8.25908V13.6626C13.1907 13.9746 13.0668 14.2738 12.8461 14.4944C12.6255 14.715 12.3263 14.8389 12.0143 14.8389C11.7023 14.8389 11.4031 14.715 11.1825 14.4944C10.9619 14.2738 10.8379 13.9746 10.8379 13.6626V8.25908ZM12.0457 18.8543C11.7789 18.8543 11.5181 18.7752 11.2963 18.627C11.0744 18.4788 10.9016 18.2681 10.7995 18.0216C10.6974 17.7751 10.6706 17.5039 10.7227 17.2422C10.7747 16.9806 10.9032 16.7402 11.0919 16.5516C11.2805 16.3629 11.5209 16.2345 11.7825 16.1824C12.0442 16.1304 12.3154 16.1571 12.5619 16.2592C12.8084 16.3613 13.0191 16.5342 13.1673 16.756C13.3155 16.9778 13.3946 17.2386 13.3946 17.5054C13.3946 17.8632 13.2525 18.2063 12.9995 18.4592C12.7465 18.7122 12.4034 18.8543 12.0457 18.8543Z" fill="black"/>
</svg>
